X: 07122
T: WHAT ARE YOU DOING HERE?
C: Bob McQuillen 4 Oct 86
B: Bob's Note Book 7 #122
%R: jig
Z: 2019 John Chambers <jc:trillian.mit.edu>
M: 6/8
L: 1/8
K: G
B/c/ \
| d2B GAB | c2G E2G | FGA EGF | E3 DBc |\
| d2B GAB | c2E A2G | FEF DEF | G3- G2 :|
|: E \
| DGG F2G | A3- A2B | ABA G2A | B3- B2B |\
| cBc ABc | d2B G2G | ABc B2A | G3- G2 :|
%%begintext align
%% You'll
%% just have to talk to Tod
%% Whittemore and Penn Fix
%% about this tune!
%%endtext

%%sep 1 1 500

%%sep 1 1 500

